src/assets/filled/Send.svg

<?xml version="1.0" encoding="UTF-8"?>
<svg width="24" height="24" viewBox="0 0 24 24" xmlns="http://www.w3.org/2000/svg">
 <path d="m20.5 21.25h-17c-0.41 0-0.75 0.34-0.75 0.75s0.34 0.75 0.75 0.75h17c0.41 0 0.75-0.34 0.75-0.75s-0.34-0.75-0.75-0.75z"/>
 <path d="m5 14.52c0.41 0 0.75-0.34 0.75-0.75v-8.46l12.72 12.72c0.15 0.15 0.34 0.22 0.53 0.22s0.38-0.07 0.53-0.22c0.29-0.29 0.29-0.77 0-1.06l-12.72-12.72h8.46c0.41 0 0.75-0.34 0.75-0.75s-0.34-0.75-0.75-0.75h-10.27c-0.1 0-0.19 0.02-0.29 0.06-0.18 0.07-0.33 0.22-0.4 0.4-0.04 0.1-0.06 0.19-0.06 0.29v10.27c0 0.41 0.34 0.75 0.75 0.75z"/>
</svg>

<svg width="24" height="24" viewBox="0 0 24 24"  xmlns="http://www.w3.org/2000/svg">
<path d="M20.5 21.25H3.5C3.09 21.25 2.75 21.59 2.75 22C2.75 22.41 3.09 22.75 3.5 22.75H20.5C20.91 22.75 21.25 22.41 21.25 22C21.25 21.59 20.91 21.25 20.5 21.25Z" />
<path d="M5 14.52C5.41 14.52 5.75 14.18 5.75 13.77V5.31L18.47 18.03C18.62 18.18 18.81 18.25 19 18.25C19.19 18.25 19.38 18.18 19.53 18.03C19.82 17.74 19.82 17.26 19.53 16.97L6.81 4.25H15.27C15.68 4.25 16.02 3.91 16.02 3.5C16.02 3.09 15.68 2.75 15.27 2.75H5C4.9 2.75 4.81 2.77 4.71 2.81C4.53 2.88 4.38 3.03 4.31 3.21C4.27 3.31 4.25 3.4 4.25 3.5V13.77C4.25 14.18 4.59 14.52 5 14.52Z" />
</svg>
